X: 160
T: No_241_Song_of_Friendship_(b).krn
N: Derived from No_241_Song_of_Friendship_(b).krn
%%abc-version 2.0
%%abcx-abcm2ps-target-version 5.9.1 (29 Sep 2008)
%%abc-creator hum2abc beta
%%abcx-conversion-date 2019/03/15 08:38:45
%%humdrum-veritas 943669863
%%humdrum-veritas-data 3986134149
%%linebreak <none>
%%barnumbers 0
L: 1/8
M: 2/4
K: G clef=bass
[K:clef=bass][M:2/4]z3/ A,/ A,3/G,/ ]|:  
A,4 | 
A,/G,3/ E,/C,3/ | 
D,D,/D,/ D, z | 
D,D,D,2 ||  
[M:3/4]A,A,/G,/ E,/D,/B,, z E, ||  
[M:3/8]D,2D,/D,/ | 
D, z D, ||  
[M:3/4]D,3z/ A,/ A,3/G,/ :|]  
[M:3/8]D,D, z |]  



